X: 9
T: Salamanca, The
Z: UPipes & harp
S: https://thesession.org/tunes/99#setting47978
R: reel
M: 4/4
L: 1/8
K: Dmaj
|:AD (3FED AD (3FED|Adcd fedc|BE ~E2 BE ~E2|Beed cdeg|
fB ~B2 fB ~B2|(3fgf ef dfag|fdec dBAG|1 FGEF D2 dB:|2 FGEF D2 fg|
|:afdg bgeg|fdec dcBA|Addc defg|a2 gb a2fg|
a3 f g3 e|f3 e dfag|fdec dBAG|1 FGEF D2fg:|2 FGEF D2 dB|

